static/img/external-link-orange.svg

<?xml version="1.0" encoding="UTF-8" standalone="no"?>
<!-- Created with Inkscape (http://www.inkscape.org/) -->

<svg
   xmlns:dc="http://purl.org/dc/elements/1.1/"
   xmlns:cc="http://creativecommons.org/ns#"
   xmlns:rdf="http://www.w3.org/1999/02/22-rdf-syntax-ns#"
   xmlns:svg="http://www.w3.org/2000/svg"
   xmlns="http://www.w3.org/2000/svg"
   xmlns:sodipodi="http://sodipodi.sourceforge.net/DTD/sodipodi-0.dtd"
   xmlns:inkscape="http://www.inkscape.org/namespaces/inkscape"
   width="90"
   height="90"
   id="svg3140"
   version="1.1"
   inkscape:version="0.48+devel r12585"
   sodipodi:docname="external-link-orange.svg">
  <defs
     id="defs3142" />
  <sodipodi:namedview
     id="base"
     pagecolor="#ffffff"
     bordercolor="#666666"
     borderopacity="1.0"
     inkscape:pageopacity="0.0"
     inkscape:pageshadow="2"
     inkscape:zoom="2.6077032"
     inkscape:cx="40.342015"
     inkscape:cy="41.108902"
     inkscape:document-units="px"
     inkscape:current-layer="g4978"
     showgrid="true"
     inkscape:window-width="1920"
     inkscape:window-height="1029"
     inkscape:window-x="0"
     inkscape:window-y="24"
     inkscape:window-maximized="1"
     fit-margin-top="0"
     fit-margin-left="0"
     fit-margin-right="0"
     fit-margin-bottom="0"
     showguides="false"
     inkscape:snap-global="true"
     inkscape:snap-bbox="true"
     inkscape:bbox-paths="true"
     inkscape:bbox-nodes="true"
     inkscape:snap-bbox-edge-midpoints="true"
     inkscape:snap-bbox-midpoints="true"
     inkscape:snap-intersection-paths="true"
     inkscape:object-nodes="true"
     inkscape:snap-smooth-nodes="true"
     inkscape:snap-midpoints="true"
     inkscape:object-paths="true"
     inkscape:snap-object-midpoints="true"
     inkscape:snap-center="true">
    <inkscape:grid
       type="xygrid"
       id="grid3178"
       empspacing="6"
       visible="true"
       enabled="true"
       snapvisiblegridlinesonly="true"
       originx="0px"
       originy="-1.7382813e-05px" />
  </sodipodi:namedview>
  <metadata
     id="metadata3145">
    <rdf:RDF>
      <cc:Work
         rdf:about="">
        <dc:format>image/svg+xml</dc:format>
        <dc:type
           rdf:resource="http://purl.org/dc/dcmitype/StillImage" />
        <dc:title></dc:title>
      </cc:Work>
    </rdf:RDF>
  </metadata>
  <g
     inkscape:label="Layer 1"
     inkscape:groupmode="layer"
     id="layer1"
     transform="translate(0,-962.36218)">
    <rect
       style="color:#000000;fill:none;stroke:none;stroke-width:7.5;marker:none;visibility:visible;display:inline;overflow:visible;enable-background:accumulate"
       id="rect4198"
       width="90"
       height="90"
       x="0"
       y="962.36218" />
    <g
       id="g4978"
       transform="translate(-60,548.00002)">
      <path
         style="fill:#dd4814;fill-opacity:1"
         d="M 33 13.011719 C 8.9936146 13.041401 6 13.746598 6 31 L 6 67 C 6 85 9 85 36 85 L 48 85 C 75 85 78 85 78 67 L 78 58 L 69 58 L 69 64 C 69 76 69 76 45 76 L 39 76 C 15 76 15 76 15 64 L 15 34 C 15 23.136095 15.191578 22.114954 33 22.017578 L 33 13.011719 z "
         transform="translate(60,414.36216)"
         id="path3759" />
      <rect
         style="color:#000000;fill:none;stroke:none;stroke-width:6;marker:none;visibility:visible;display:inline;overflow:visible;enable-background:accumulate"
         id="rect3045"
         width="90"
         height="90"
         x="0"
         y="1.7382814e-05"
         transform="translate(60,414.36216)" />
      <path
         sodipodi:type="star"
         style="color:#000000;fill:#dd4814;fill-opacity:1;fill-rule:nonzero;stroke:none;stroke-width:3;marker:none;visibility:visible;display:inline;overflow:visible;enable-background:accumulate"
         id="path4984-3"
         sodipodi:sides="3"
         sodipodi:cx="111"
         sodipodi:cy="174.09448"
         sodipodi:r1="5.8309517"
         sodipodi:r2="2.9154758"
         sodipodi:arg1="1.0471976"
         sodipodi:arg2="2.0943951"
         inkscape:flatsided="true"
         inkscape:rounded="0.06"
         inkscape:randomized="0"
         d="m 113.91548,179.14423 c -0.52479,0.30299 -8.74643,-4.44378 -8.74643,-5.04975 0,-0.60597 8.22164,-5.35273 8.74643,-5.04975 0.52478,0.30299 0.52478,9.79652 0,10.0995 z"
         transform="matrix(-2.9934635,2.9934635,-3.1108986,-3.1108989,1000.1718,648.37103)"
         inkscape:transform-center-y="5.2240217"
         inkscape:transform-center-x="5.2240132"
         xml:space="default" />
      <path
         style="font-style:normal;font-variant:normal;font-weight:normal;font-stretch:normal;text-indent:0;text-align:start;text-decoration:none;line-height:normal;letter-spacing:normal;word-spacing:normal;text-transform:none;direction:ltr;block-progression:tb;writing-mode:lr-tb;text-anchor:start;baseline-shift:baseline;color:#000000;fill:#dd4814;fill-opacity:1;stroke:none;stroke-width:9;marker:none;visibility:visible;display:inline;overflow:visible;enable-background:accumulate;font-family:Sans;-inkscape-font-specification:Sans"
         d="m 116.42642,438.99503 -24.340002,24.33999 9.940732,9.94073 24.34,-24.34 z"
         id="path3789"
         inkscape:connector-curvature="0"
         xml:space="default"
         sodipodi:nodetypes="ccccc" />
    </g>
  </g>
</svg>

<svg xmlns="http://www.w3.org/2000/svg" width="90" height="90"><path color="#000" fill="none" stroke-width="7.5" overflow="visible" enable-background="accumulate" d="M0 0h90v90H0z"/><path d="M33 13.012C8.994 13.042 6 13.747 6 31v36c0 18 3 18 30 18h12c27 0 30 0 30-18v-9h-9v6c0 12 0 12-24 12h-6c-24 0-24 0-24-12V34c0-10.864.192-11.885 18-11.982v-9.006z" fill="#dd4814"/><path color="#000" fill="none" stroke-width="6" overflow="visible" enable-background="accumulate" d="M0 0h90v90H0z"/><path d="M113.915 179.144c-.524.303-8.746-4.444-8.746-5.05 0-.605 8.22-5.352 8.744-5.05.525.304.525 9.797 0 10.1z" transform="matrix(-2.993 2.993 -3.111 -3.111 940.172 234.009)" xml:space="default" color="#000" fill="#dd4814" stroke-width="3" overflow="visible" enable-background="accumulate"/><path style="text-indent:0;text-align:start;line-height:normal;text-transform:none;block-progression:tb;-inkscape-font-specification:Sans" d="M56.426 24.633l-24.34 24.34 9.94 9.94 24.34-24.34z" xml:space="default" color="#000" fill="#dd4814" stroke-width="9" overflow="visible" enable-background="accumulate" font-family="Sans"/></svg>
